dist/svgs/unicons/line/chart.svg

<svg xmlns="http://www.w3.org/2000/svg" viewBox="0 0 24 24"><path d="M12 6a1 1 0 00-1 1v10a1 1 0 002 0V7a1 1 0 00-1-1zm-5 6a1 1 0 00-1 1v4a1 1 0 002 0v-4a1 1 0 00-1-1zm10-2a1 1 0 00-1 1v6a1 1 0 002 0v-6a1 1 0 00-1-1zm2-8H5a3 3 0 00-3 3v14a3 3 0 003 3h14a3 3 0 003-3V5a3 3 0 00-3-3zm1 17a1 1 0 01-1 1H5a1 1 0 01-1-1V5a1 1 0 011-1h14a1 1 0 011 1z"/></svg>

<svg xmlns="http://www.w3.org/2000/svg" viewBox="0 0 24 24"><path d="M12,6a1,1,0,0,0-1,1V17a1,1,0,0,0,2,0V7A1,1,0,0,0,12,6ZM7,12a1,1,0,0,0-1,1v4a1,1,0,0,0,2,0V13A1,1,0,0,0,7,12Zm10-2a1,1,0,0,0-1,1v6a1,1,0,0,0,2,0V11A1,1,0,0,0,17,10Zm2-8H5A3,3,0,0,0,2,5V19a3,3,0,0,0,3,3H19a3,3,0,0,0,3-3V5A3,3,0,0,0,19,2Zm1,17a1,1,0,0,1-1,1H5a1,1,0,0,1-1-1V5A1,1,0,0,1,5,4H19a1,1,0,0,1,1,1Z"/></svg>
